priv/static/images/tools/docker.svg

<svg
  width="128"
  height="128"
  viewBox="0 0 128 128"
  fill="none"
  xmlns="http://www.w3.org/2000/svg"
>
  <path
    fill-rule="evenodd"
    clip-rule="evenodd"
    d="M73.7999 50.7998H85.0998V62.2998H90.7999C93.3998 62.2998 96.0998 61.7998 98.5998 60.9998C99.7998 60.5998 101.2 59.9998 102.4 59.2998C100.8 57.1998 99.9998 54.5998 99.7999 51.9998C99.4998 48.4998 100.2 43.8998 102.6 41.1998L103.8 39.7998L105.2 40.8998C108.8 43.7998 111.7 47.6998 112.3 52.2998C116.6 50.9998 121.6 51.2998 125.4 53.4998L126.9 54.3998L126.1 55.9998C122.9 62.1998 116.2 64.1998 109.7 63.7998C99.8998 88.0998 78.6999 99.5998 52.8999 99.5998C39.5999 99.5998 27.3999 94.5998 20.3999 82.7998L20.2999 82.5998L19.2999 80.4998C16.8999 75.2998 16.1999 69.5998 16.6999 63.8998L16.8999 62.1998H26.4999V50.7998H37.7999V39.5998H60.2999V28.2998H73.7999V50.7998Z"
    fill="#3A4D54"
  />
  <path
    d="M110.4 55.1004C111.2 49.2004 106.8 44.6004 104 42.4004C100.9 46.0004 100.4 55.6004 105.3 59.6004C102.5 62.0004 96.8 64.3004 90.8 64.3004H18.6C18 70.5004 19.1 76.2004 21.6 81.1004L22.4 82.6004C22.9 83.5004 23.5 84.3004 24.1 85.2004C27.1 85.4004 29.8 85.5004 32.3 85.4004C37.2 85.3004 41.2 84.7004 44.3 83.7004C44.8 83.5004 45.2 83.8004 45.4 84.2004C45.6 84.7004 45.3 85.1004 44.9 85.3004C44.5 85.4004 44.1 85.6004 43.6 85.7004C41.2 86.4004 38.6 86.8004 35.3 87.0004H34.7C33.4 87.1004 32 87.1004 30.5 87.1004C28.9 87.1004 27.4 87.1004 25.6 87.0004C31.6 93.8004 41 97.8004 52.8 97.8004C77.8 97.8004 99 86.7004 108.3 61.9004C115 62.6004 121.4 60.9004 124.3 55.2004C119.8 52.5004 113.8 53.4004 110.4 55.1004Z"
    fill="#00AADA"
  />
  <path
    d="M110.4 55.1004C111.2 49.2004 106.8 44.6004 104 42.4004C100.9 46.0004 100.4 55.6004 105.3 59.6004C102.5 62.0004 96.8001 64.3004 90.8001 64.3004H22.8001C22.5001 73.8004 26.0001 81.0004 32.3001 85.3004C37.2001 85.2004 41.2001 84.6004 44.3001 83.6004C44.8001 83.4004 45.2001 83.7004 45.4001 84.1004C45.6001 84.6004 45.3001 85.0004 44.9001 85.2004C44.5001 85.3004 44.1001 85.5004 43.6001 85.6004C41.2001 86.3004 38.4001 86.8004 35.1001 87.0004L35.0001 86.9004C43.5001 91.3004 55.8001 91.2004 70.0001 85.8004C85.8001 79.7004 100.6 68.1004 110.9 54.9004C110.7 55.0004 110.5 55.0004 110.4 55.1004Z"
    fill="#28B8EB"
  />
  <path
    d="M18.7002 71.7998C19.1002 75.0998 20.1002 78.1998 21.6002 81.0998L22.4002 82.5998C22.9002 83.4998 23.5002 84.2998 24.1002 85.1998C27.1002 85.3998 29.8002 85.4998 32.3002 85.3998C37.2002 85.2998 41.2002 84.6998 44.3002 83.6998C44.8002 83.4998 45.2002 83.7998 45.4002 84.1998C45.6002 84.6998 45.3002 85.0998 44.9002 85.2998C44.5002 85.3998 44.1002 85.5998 43.6002 85.6998C41.2002 86.3998 38.4002 86.8998 35.1002 87.0998H34.7002C33.4002 87.1998 32.0002 87.1998 30.6002 87.1998C29.0002 87.1998 27.4002 87.1998 25.7002 87.0998C31.7002 93.8998 41.2002 97.8998 53.0002 97.8998C74.4002 97.8998 93.0002 89.7998 103.8 71.8998H18.7002V71.7998Z"
    fill="#028BB8"
  />
  <path
    d="M23.5 71.7998C24.8 77.5998 27.8 82.1998 32.3 85.2998C37.2 85.1998 41.2 84.5998 44.3 83.5998C44.8 83.3998 45.2 83.6998 45.4 84.0998C45.6 84.5998 45.3 84.9998 44.9 85.1998C44.5 85.2998 44.1 85.4998 43.6 85.5998C41.2 86.2998 38.4 86.7998 35 86.9998C43.5 91.3998 55.8 91.2998 69.9 85.8998C78.4 82.5998 86.7 77.6998 94.1 71.7998H23.5Z"
    fill="#019BC6"
  />
  <path
    fill-rule="evenodd"
    clip-rule="evenodd"
    d="M28.3999 52.7H38.1999V62.5H28.3999V52.7ZM29.1999 53.5H29.9999V61.6H29.1999V53.5ZM30.5999 53.5H31.3999V61.6H30.5999V53.5ZM32.0999 53.5H32.8999V61.6H32.0999V53.5ZM33.5999 53.5H34.3999V61.6H33.5999V53.5ZM35.0999 53.5H35.8999V61.6H35.0999V53.5ZM36.5999 53.5H37.3999V61.6H36.5999V53.5ZM39.5999 41.5H49.3999V51.3H39.5999V41.5ZM40.4999 42.3H41.2999V50.4H40.4999V42.3ZM41.8999 42.3H42.6999V50.4H41.8999V42.3ZM43.3999 42.3H44.1999V50.4H43.3999V42.3ZM44.8999 42.3H45.6999V50.4H44.8999V42.3ZM46.2999 42.3H47.0999V50.4H46.2999V42.3ZM47.7999 42.3H48.5999V50.4H47.7999V42.3Z"
    fill="#00ACD3"
  />
  <path
    fill-rule="evenodd"
    clip-rule="evenodd"
    d="M39.6001 52.7002H49.4001V62.5002H39.6001V52.7002ZM40.5001 53.5002H41.3001V61.6002H40.5001V53.5002ZM41.9001 53.5002H42.7001V61.6002H41.9001V53.5002ZM43.4001 53.5002H44.2001V61.6002H43.4001V53.5002ZM44.9001 53.5002H45.7001V61.6002H44.9001V53.5002ZM46.3001 53.5002H47.1001V61.6002H46.3001V53.5002ZM47.8001 53.5002H48.6001V61.6002H47.8001V53.5002Z"
    fill="#23C2EE"
  />
  <path
    fill-rule="evenodd"
    clip-rule="evenodd"
    d="M50.8999 52.7002H60.6999V62.5002H50.8999V52.7002ZM51.6999 53.5002H52.4999V61.6002H51.6999V53.5002ZM53.1999 53.5002H53.9999V61.6002H53.1999V53.5002ZM54.6999 53.5002H55.4999V61.6002H54.6999V53.5002ZM56.0999 53.5002H56.8999V61.6002H56.0999V53.5002ZM57.5999 53.5002H58.3999V61.6002H57.5999V53.5002ZM59.0999 53.5002H59.8999V61.6002H59.0999V53.5002Z"
    fill="#00ACD3"
  />
  <path
    fill-rule="evenodd"
    clip-rule="evenodd"
    d="M50.8999 41.5H60.6999V51.3H50.8999V41.5ZM51.6999 42.3H52.4999V50.4H51.6999V42.3ZM53.1999 42.3H53.9999V50.4H53.1999V42.3ZM54.6999 42.3H55.4999V50.4H54.6999V42.3ZM56.0999 42.3H56.8999V50.4H56.0999V42.3ZM57.5999 42.3H58.3999V50.4H57.5999V42.3ZM59.0999 42.3H59.8999V50.4H59.0999V42.3ZM62.1999 52.7H71.9999V62.5H62.1999V52.7ZM62.9999 53.5H63.7999V61.6H62.9999V53.5ZM64.4999 53.5H65.2999V61.6H64.4999V53.5ZM65.8999 53.5H66.6999V61.6H65.8999V53.5ZM67.3999 53.5H68.1999V61.6H67.3999V53.5ZM68.8999 53.5H69.6999V61.6H68.8999V53.5ZM70.3999 53.5H71.1999V61.6H70.3999V53.5Z"
    fill="#23C2EE"
  />
  <path
    fill-rule="evenodd"
    clip-rule="evenodd"
    d="M62.2002 41.5H72.0002V51.3H62.2002V41.5ZM63.0002 42.3H63.8002V50.4H63.0002V42.3ZM64.5002 42.3H65.3002V50.4H64.5002V42.3ZM65.9002 42.3H66.7002V50.4H65.9002V42.3ZM67.4002 42.3H68.2002V50.4H67.4002V42.3ZM68.9002 42.3H69.7002V50.4H68.9002V42.3ZM70.4002 42.3H71.2002V50.4H70.4002V42.3Z"
    fill="#00ACD3"
  />
  <path
    fill-rule="evenodd"
    clip-rule="evenodd"
    d="M62.2002 30.2002H72.0002V40.0002H62.2002V30.2002ZM63.0002 31.0002H63.8002V39.1002H63.0002V31.0002ZM64.5002 31.0002H65.3002V39.1002H64.5002V31.0002ZM65.9002 31.0002H66.7002V39.1002H65.9002V31.0002ZM67.4002 31.0002H68.2002V39.1002H67.4002V31.0002ZM68.9002 31.0002H69.7002V39.1002H68.9002V31.0002ZM70.4002 31.0002H71.2002V39.1002H70.4002V31.0002Z"
    fill="#23C2EE"
  />
  <path
    fill-rule="evenodd"
    clip-rule="evenodd"
    d="M73.5 52.7002H83.3V62.5002H73.5V52.7002ZM74.3 53.5002H75.1V61.6002H74.3V53.5002ZM75.7 53.5002H76.5V61.6002H75.7V53.5002ZM77.2 53.5002H78V61.6002H77.2V53.5002ZM78.7 53.5002H79.5V61.6002H78.7V53.5002ZM80.2 53.5002H81V61.6002H80.2V53.5002ZM81.7 53.5002H82.5V61.6002H81.7V53.5002Z"
    fill="#00ACD3"
  />
  <path
    fill-rule="evenodd"
    clip-rule="evenodd"
    d="M48.8001 78.2998C50.3001 78.2998 51.5001 79.4998 51.5001 80.9998C51.5001 82.4998 50.3001 83.6998 48.8001 83.6998C47.3001 83.6998 46.1001 82.4998 46.1001 80.9998C46.1001 79.4998 47.3001 78.2998 48.8001 78.2998Z"
    fill="#D4EEF1"
  />
  <path
    fill-rule="evenodd"
    clip-rule="evenodd"
    d="M48.8001 79.0996C49.0001 79.0996 49.3001 79.0996 49.5001 79.1996C49.3001 79.2996 49.1001 79.5996 49.1001 79.8996C49.1001 80.2996 49.5001 80.6996 49.9001 80.6996C50.2001 80.6996 50.5001 80.4996 50.6001 80.2996C50.7001 80.4996 50.7001 80.7996 50.7001 80.9996C50.7001 82.0996 49.8001 82.8996 48.8001 82.8996C47.7001 82.8996 46.9001 81.9996 46.9001 80.9996C46.9001 79.9996 47.7001 79.0996 48.8001 79.0996ZM1.1001 72.7996H126.5C123.8 72.0996 117.9 71.1996 118.8 67.5996C113.8 73.2996 101.9 71.5996 98.8001 68.7996C95.4001 73.6996 75.8001 71.7996 74.5001 67.9996C70.3001 72.9996 57.2001 72.9996 53.0001 67.9996C51.6001 71.7996 32.0001 73.6996 28.7001 68.7996C25.7001 71.5996 13.7001 73.2996 8.7001 67.5996C9.8001 71.0996 3.8001 72.0996 1.1001 72.7996Z"
    fill="#3A4D54"
  />
  <path
    d="M55.9999 97.7996C49.2999 94.5996 45.6999 90.2996 43.5999 85.5996C41.0999 86.2996 38.0999 86.7996 34.6999 86.9996C33.3999 87.0996 31.9999 87.0996 30.5999 87.0996C28.8999 87.0996 27.1999 87.0996 25.3999 86.9996C31.3999 92.9996 38.9999 97.6996 52.8999 97.7996H55.9999Z"
    fill="#BFDBE0"
  />
  <path
    d="M46.1002 89.8996C45.2002 88.5996 44.3002 87.0996 43.6002 85.5996C41.1002 86.2996 38.1002 86.7996 34.7002 86.9996C37.0002 88.1996 40.4002 89.3996 46.1002 89.8996Z"
    fill="#D4EEF1"
  />
</svg>

<svg xmlns="http://www.w3.org/2000/svg" width="128" height="128" fill="none"><path fill="#3A4D54" fill-rule="evenodd" d="M73.8 50.8h11.3v11.5h5.7c2.6 0 5.3-.5 7.8-1.3 1.2-.4 2.6-1 3.8-1.7-1.6-2.1-2.4-4.7-2.6-7.3-.3-3.5.4-8.1 2.8-10.8l1.2-1.4 1.4 1.1c3.6 2.9 6.5 6.8 7.1 11.4 4.3-1.3 9.3-1 13.1 1.2l1.5.9-.8 1.6c-3.2 6.2-9.9 8.2-16.4 7.8-9.8 24.3-31 35.8-56.8 35.8-13.3 0-25.5-5-32.5-16.8l-.1-.2-1-2.1c-2.4-5.2-3.1-10.9-2.6-16.6l.2-1.7h9.6V50.8h11.3V39.6h22.5V28.3h13.5z" clip-rule="evenodd"/><path fill="#00AADA" d="M110.4 55.1c.8-5.9-3.6-10.5-6.4-12.7-3.1 3.6-3.6 13.2 1.3 17.2-2.8 2.4-8.5 4.7-14.5 4.7H18.6c-.6 6.2.5 11.9 3 16.8l.8 1.5c.5.9 1.1 1.7 1.7 2.6 3 .2 5.7.3 8.2.2 4.9-.1 8.9-.7 12-1.7.5-.2.9.1 1.1.5.2.5-.1.9-.5 1.1-.4.1-.8.3-1.3.4-2.4.7-5 1.1-8.3 1.3h-.6c-1.3.1-2.7.1-4.2.1-1.6 0-3.1 0-4.9-.1 6 6.8 15.4 10.8 27.2 10.8 25 0 46.2-11.1 55.5-35.9 6.7.7 13.1-1 16-6.7-4.5-2.7-10.5-1.8-13.9-.1"/><path fill="#28B8EB" d="M110.4 55.1c.8-5.9-3.6-10.5-6.4-12.7-3.1 3.6-3.6 13.2 1.3 17.2-2.8 2.4-8.5 4.7-14.5 4.7h-68c-.3 9.5 3.2 16.7 9.5 21 4.9-.1 8.9-.7 12-1.7.5-.2.9.1 1.1.5.2.5-.1.9-.5 1.1-.4.1-.8.3-1.3.4-2.4.7-5.2 1.2-8.5 1.4l-.1-.1c8.5 4.4 20.8 4.3 35-1.1 15.8-6.1 30.6-17.7 40.9-30.9-.2.1-.4.1-.5.2"/><path fill="#028BB8" d="M18.7 71.8c.4 3.3 1.4 6.4 2.9 9.3l.8 1.5c.5.9 1.1 1.7 1.7 2.6 3 .2 5.7.3 8.2.2 4.9-.1 8.9-.7 12-1.7.5-.2.9.1 1.1.5.2.5-.1.9-.5 1.1-.4.1-.8.3-1.3.4-2.4.7-5.2 1.2-8.5 1.4h-.4c-1.3.1-2.7.1-4.1.1-1.6 0-3.2 0-4.9-.1 6 6.8 15.5 10.8 27.3 10.8 21.4 0 40-8.1 50.8-26H18.7z"/><path fill="#019BC6" d="M23.5 71.8c1.3 5.8 4.3 10.4 8.8 13.5 4.9-.1 8.9-.7 12-1.7.5-.2.9.1 1.1.5.2.5-.1.9-.5 1.1-.4.1-.8.3-1.3.4-2.4.7-5.2 1.2-8.6 1.4 8.5 4.4 20.8 4.3 34.9-1.1 8.5-3.3 16.8-8.2 24.2-14.1z"/><path fill="#00ACD3" fill-rule="evenodd" d="M28.4 52.7h9.8v9.8h-9.8zm.8.8h.8v8.1h-.8zm1.4 0h.8v8.1h-.8zm1.5 0h.8v8.1h-.8zm1.5 0h.8v8.1h-.8zm1.5 0h.8v8.1h-.8zm1.5 0h.8v8.1h-.8zm3-12h9.8v9.8h-9.8zm.9.8h.8v8.1h-.8zm1.4 0h.8v8.1h-.8zm1.5 0h.8v8.1h-.8zm1.5 0h.8v8.1h-.8zm1.4 0h.8v8.1h-.8zm1.5 0h.8v8.1h-.8z" clip-rule="evenodd"/><path fill="#23C2EE" fill-rule="evenodd" d="M39.6 52.7h9.8v9.8h-9.8zm.9.8h.8v8.1h-.8zm1.4 0h.8v8.1h-.8zm1.5 0h.8v8.1h-.8zm1.5 0h.8v8.1h-.8zm1.4 0h.8v8.1h-.8zm1.5 0h.8v8.1h-.8z" clip-rule="evenodd"/><path fill="#00ACD3" fill-rule="evenodd" d="M50.9 52.7h9.8v9.8h-9.8zm.8.8h.8v8.1h-.8zm1.5 0h.8v8.1h-.8zm1.5 0h.8v8.1h-.8zm1.4 0h.8v8.1h-.8zm1.5 0h.8v8.1h-.8zm1.5 0h.8v8.1h-.8z" clip-rule="evenodd"/><path fill="#23C2EE" fill-rule="evenodd" d="M50.9 41.5h9.8v9.8h-9.8zm.8.8h.8v8.1h-.8zm1.5 0h.8v8.1h-.8zm1.5 0h.8v8.1h-.8zm1.4 0h.8v8.1h-.8zm1.5 0h.8v8.1h-.8zm1.5 0h.8v8.1h-.8zm3.1 10.4H72v9.8h-9.8zm.8.8h.8v8.1H63zm1.5 0h.8v8.1h-.8zm1.4 0h.8v8.1h-.8zm1.5 0h.8v8.1h-.8zm1.5 0h.8v8.1h-.8zm1.5 0h.8v8.1h-.8z" clip-rule="evenodd"/><path fill="#00ACD3" fill-rule="evenodd" d="M62.2 41.5H72v9.8h-9.8zm.8.8h.8v8.1H63zm1.5 0h.8v8.1h-.8zm1.4 0h.8v8.1h-.8zm1.5 0h.8v8.1h-.8zm1.5 0h.8v8.1h-.8zm1.5 0h.8v8.1h-.8z" clip-rule="evenodd"/><path fill="#23C2EE" fill-rule="evenodd" d="M62.2 30.2H72V40h-9.8zm.8.8h.8v8.1H63zm1.5 0h.8v8.1h-.8zm1.4 0h.8v8.1h-.8zm1.5 0h.8v8.1h-.8zm1.5 0h.8v8.1h-.8zm1.5 0h.8v8.1h-.8z" clip-rule="evenodd"/><path fill="#00ACD3" fill-rule="evenodd" d="M73.5 52.7h9.8v9.8h-9.8zm.8.8h.8v8.1h-.8zm1.4 0h.8v8.1h-.8zm1.5 0h.8v8.1h-.8zm1.5 0h.8v8.1h-.8zm1.5 0h.8v8.1h-.8zm1.5 0h.8v8.1h-.8z" clip-rule="evenodd"/><path fill="#D4EEF1" fill-rule="evenodd" d="M48.8 78.3c1.5 0 2.7 1.2 2.7 2.7s-1.2 2.7-2.7 2.7-2.7-1.2-2.7-2.7 1.2-2.7 2.7-2.7" clip-rule="evenodd"/><path fill="#3A4D54" fill-rule="evenodd" d="M48.8 79.1c.2 0 .5 0 .7.1-.2.1-.4.4-.4.7 0 .4.4.8.8.8.3 0 .6-.2.7-.4.1.2.1.5.1.7 0 1.1-.9 1.9-1.9 1.9-1.1 0-1.9-.9-1.9-1.9s.8-1.9 1.9-1.9M1.1 72.8h125.4c-2.7-.7-8.6-1.6-7.7-5.2-5 5.7-16.9 4-20 1.2-3.4 4.9-23 3-24.3-.8-4.2 5-17.3 5-21.5 0-1.4 3.8-21 5.7-24.3.8-3 2.8-15 4.5-20-1.2 1.1 3.5-4.9 4.5-7.6 5.2" clip-rule="evenodd"/><path fill="#BFDBE0" d="M56 97.8c-6.7-3.2-10.3-7.5-12.4-12.2-2.5.7-5.5 1.2-8.9 1.4-1.3.1-2.7.1-4.1.1-1.7 0-3.4 0-5.2-.1 6 6 13.6 10.7 27.5 10.8z"/><path fill="#D4EEF1" d="M46.1 89.9c-.9-1.3-1.8-2.8-2.5-4.3-2.5.7-5.5 1.2-8.9 1.4 2.3 1.2 5.7 2.4 11.4 2.9"/></svg>
